X: 1
T: An Dro "Ker Breizh"
N: ("Loud Noise")
O: from Triple Spiral
S: Daniel Salomon 2013-1-21
Q: 1/2=90
M: 4/4
L: 1/8
K: D
|: "D"DEFG "A7"A3G | "D"F2D2 "A7"A>BA2 | "D"DEFG "A7"A3G | "D"F2D2 "A7"A4 :|
|: "D"F2GA F3A | "A7"GFE2 "D"F2D2  | "D"F2GA F3A | "A7"FGE2 "D"D4 :|
|: "A7"FGAG "D"F3D | "A7"E2F2 "D"D2A2  | "A7"FGAG "D"F3D | "A7"E2F2 "D"D4 :|

%%sep 1 1 500
%%sep 1 1 500

